brandFactory_export/2.Regular/Filtros_2Regular.svg

<?xml version="1.0" encoding="UTF-8"?>
<svg width="24px" height="24px" viewBox="0 0 24 24" version="1.1" xmlns="http://www.w3.org/2000/svg" xmlns:xlink="http://www.w3.org/1999/xlink">
    <title>2.Regular/Filtros_2Regular</title>
    <g id="Symbols" stroke="none" stroke-width="1" fill="none" fill-rule="evenodd">
        <g id="2.Regular/Filtros_2Regular" fill="#5CB615" fill-rule="nonzero">
            <path d="M3.70756303,3.41008403 C3.40168067,3.88403361 3.30084034,4.46218487 3.42857143,5.01008403 C3.55630252,5.56134454 3.89579832,6.03193277 4.38319328,6.33445378 C4.87394958,6.64033613 5.45546218,6.73781513 6.01344538,6.61008403 C6.57815126,6.48571429 7.05546218,6.15294118 7.36806723,5.67226891 C7.67394958,5.19495798 7.77478992,4.62689076 7.64705882,4.07226891 C7.51932773,3.5210084 7.17647059,3.04369748 6.69243697,2.74789916 C6.20504202,2.44537815 5.62016807,2.34789916 5.06218487,2.47226891 C4.50420168,2.59327731 4.01680672,2.92941176 3.70756303,3.41008403 Z M0.752941176,5.2487395 C0.359663866,5.25210084 0.0336134454,4.93613445 0.0302521008,4.5394958 C0.0302521008,4.14957983 0.352941176,3.83361345 0.752941176,3.83361345 L2.01344538,3.83361345 C2.09747899,3.42016807 2.25210084,3.02352941 2.48739496,2.65378151 C3.00168067,1.85714286 3.81512605,1.29579832 4.74285714,1.09411765 C5.67394958,0.882352941 6.65210084,1.04705882 7.46218487,1.5512605 C8.2789916,2.05210084 8.84369748,2.83865546 9.05546218,3.75966387 C9.06218487,3.78319328 9.05882353,3.81008403 9.06218487,3.83361345 L22.8672269,3.83361345 C23.2638655,3.83361345 23.589916,4.15294118 23.589916,4.54285714 C23.589916,4.93277311 23.2672269,5.25210084 22.8672269,5.25210084 L9.06554622,5.25210084 C8.98151261,5.67226891 8.82016807,6.06890756 8.58823529,6.42857143 C8.07394958,7.22857143 7.27394958,7.78319328 6.33277311,7.98823529 C5.40168067,8.2 4.42352941,8.03529412 3.61344538,7.53109244 C2.80672269,7.03697479 2.23529412,6.24369748 2.02016807,5.32268908 C2.01344538,5.29915966 2.01344538,5.27563025 2.01008403,5.2487395 L0.752941176,5.2487395 Z M18.010084,14.2369748 C19.2033613,14.2369748 20.1747899,13.2857143 20.1747899,12.1159664 C20.1747899,10.9462185 19.2033613,9.99495798 18.010084,9.99495798 C16.8168067,9.99495798 15.8453782,10.9462185 15.8453782,12.1159664 C15.8453782,13.2823529 16.8168067,14.2369748 18.010084,14.2369748 Z M22.8403361,11.4067227 C23.2403361,11.4067227 23.5630252,11.7226891 23.5630252,12.1159664 C23.5630252,12.5058824 23.2403361,12.8218487 22.8403361,12.8218487 L21.5428571,12.8218487 C21.210084,14.4319328 19.7512605,15.6487395 18.010084,15.6487395 C16.2689076,15.6487395 14.8134454,14.4319328 14.4773109,12.8218487 L0.722689076,12.8218487 C0.329411765,12.8252101 0.00336134454,12.5092437 0,12.112605 C0,11.7226891 0.322689076,11.4033613 0.722689076,11.4033613 L14.4739496,11.4033613 C14.810084,9.79327731 16.2655462,8.57647059 18.0067227,8.57647059 C19.7478992,8.57647059 21.2067227,9.79327731 21.5394958,11.4033613 L22.8403361,11.4033613 L22.8403361,11.4067227 L22.8403361,11.4067227 Z M8.76638655,21.789916 C9.95966387,21.789916 10.9310924,20.8386555 10.9310924,19.6689076 C10.9310924,18.4991597 9.95966387,17.5478992 8.76638655,17.5478992 C7.57310924,17.5478992 6.60168067,18.4991597 6.60168067,19.6689076 C6.60168067,20.8386555 7.57310924,21.789916 8.76638655,21.789916 L8.76638655,21.789916 Z M22.8369748,18.9630252 C23.2369748,18.9630252 23.5596639,19.2789916 23.5596639,19.6722689 C23.5596639,20.0621849 23.2369748,20.3815126 22.8369748,20.3815126 L12.2991597,20.3815126 C11.9630252,21.9915966 10.507563,23.2084034 8.76638655,23.2084034 C7.02521008,23.2084034 5.5697479,21.9915966 5.23361345,20.3815126 L0.722689076,20.3815126 C0.329411765,20.3848739 0.00336134454,20.0689076 0,19.6722689 C0,19.2823529 0.322689076,18.9663866 0.722689076,18.9663866 L5.23361345,18.9663866 C5.5697479,17.3563025 7.02521008,16.1394958 8.76638655,16.1394958 C10.507563,16.1394958 11.9630252,17.3563025 12.2991597,18.9663866 L22.8369748,18.9630252 Z" id="Filtros_2Regular"></path>
        </g>
    </g>
</svg>

<svg width="24" height="24" viewBox="0 0 24 24" xmlns="http://www.w3.org/2000/svg"><path d="M3.708 3.41a2.081 2.081 0 00-.28 1.6c.128.551.468 1.022.955 1.324a2.16 2.16 0 001.63.276 2.155 2.155 0 001.355-.938 2.079 2.079 0 00.28-1.6 2.109 2.109 0 00-.956-1.324 2.187 2.187 0 00-1.63-.276 2.151 2.151 0 00-1.354.938zM.753 5.25a.717.717 0 01-.723-.71c0-.39.323-.705.723-.705h1.26a3.47 3.47 0 01.474-1.18 3.596 3.596 0 012.256-1.56 3.627 3.627 0 012.72.457A3.494 3.494 0 019.054 3.76c.007.023.004.05.007.074h13.805c.397 0 .723.319.723.709 0 .39-.323.71-.723.71H9.066c-.084.42-.246.816-.478 1.176a3.56 3.56 0 01-2.255 1.56 3.627 3.627 0 01-2.72-.458A3.525 3.525 0 012.02 5.323c-.007-.024-.007-.047-.01-.074H.753zm17.257 8.988c1.193 0 2.165-.951 2.165-2.121s-.972-2.121-2.165-2.121-2.165.951-2.165 2.121c0 1.166.972 2.121 2.165 2.121zm4.83-2.83c.4 0 .723.316.723.709 0 .39-.323.706-.723.706h-1.297c-.333 1.61-1.792 2.827-3.533 2.827-1.741 0-3.197-1.217-3.533-2.827H.723a.717.717 0 01-.723-.71c0-.39.323-.709.723-.709h13.75c.337-1.61 1.793-2.827 3.534-2.827 1.74 0 3.2 1.217 3.532 2.827h1.301v.004zM8.766 21.79c1.194 0 2.165-.951 2.165-2.121s-.971-2.121-2.165-2.121c-1.193 0-2.164.951-2.164 2.12 0 1.17.971 2.122 2.164 2.122zm14.071-2.827c.4 0 .723.316.723.71 0 .39-.323.709-.723.709H12.299c-.336 1.61-1.791 2.826-3.533 2.826-1.74 0-3.196-1.216-3.532-2.826H.723a.717.717 0 01-.723-.71c0-.39.323-.706.723-.706h4.51c.337-1.61 1.792-2.827 3.533-2.827 1.742 0 3.197 1.217 3.533 2.827l10.538-.003z" fill="#5CB615" fill-rule="nonzero"/></svg>
